src/lib/packages/icons/src/assets/line/face-laugh.svg

<svg xmlns="http://www.w3.org/2000/svg" width="24" height="24" fill="none"><path fill="currentColor" d="M15 10.75c-.72 0-1.25-.74-1.25-1.75s.53-1.75 1.25-1.75 1.25.74 1.25 1.75-.53 1.75-1.25 1.75ZM10.25 9c0-1.01-.53-1.75-1.25-1.75S7.75 7.99 7.75 9s.53 1.75 1.25 1.75 1.25-.74 1.25-1.75Zm12.5 3c0-5.93-4.82-10.75-10.75-10.75S1.25 6.07 1.25 12 6.07 22.75 12 22.75 22.75 17.93 22.75 12Zm-1.5 0c0 5.1-4.15 9.25-9.25 9.25S2.75 17.1 2.75 12 6.9 2.75 12 2.75 21.25 6.9 21.25 12Zm-4.55 2.7c.05-.37-.05-.73-.29-1.01a1.26 1.26 0 0 0-.94-.43H8.55a1.245 1.245 0 0 0-1.23 1.44c.34 2.31 2.36 4.05 4.7 4.05 2.34 0 4.36-1.74 4.7-4.05h-.02Zm-1.54.05a3.265 3.265 0 0 1-3.16 2.5c-1.51 0-2.82-1.06-3.16-2.5h6.33-.01Z"/></svg>

<svg width="24" height="24" viewBox="0 0 24 24" fill="none" xmlns="http://www.w3.org/2000/svg">
<path d="M15 10.75C14.28 10.75 13.75 10.01 13.75 9C13.75 7.99 14.28 7.25 15 7.25C15.72 7.25 16.25 7.99 16.25 9C16.25 10.01 15.72 10.75 15 10.75ZM10.25 9C10.25 7.99 9.72 7.25 9 7.25C8.28 7.25 7.75 7.99 7.75 9C7.75 10.01 8.28 10.75 9 10.75C9.72 10.75 10.25 10.01 10.25 9ZM22.75 12C22.75 6.07 17.93 1.25 12 1.25C6.07 1.25 1.25 6.07 1.25 12C1.25 17.93 6.07 22.75 12 22.75C17.93 22.75 22.75 17.93 22.75 12ZM21.25 12C21.25 17.1 17.1 21.25 12 21.25C6.9 21.25 2.75 17.1 2.75 12C2.75 6.9 6.9 2.75 12 2.75C17.1 2.75 21.25 6.9 21.25 12ZM16.7 14.7C16.75 14.33 16.65 13.97 16.41 13.69C16.17 13.42 15.83 13.26 15.47 13.26H8.54999C8.18999 13.26 7.83999 13.42 7.60999 13.69C7.36999 13.97 7.26001 14.34 7.32001 14.7C7.66001 17.01 9.67999 18.75 12.02 18.75C14.36 18.75 16.38 17.01 16.72 14.7H16.7ZM15.16 14.75C14.82 16.19 13.51 17.25 12 17.25C10.49 17.25 9.18 16.19 8.84 14.75H15.17H15.16Z" fill="currentColor"/>
</svg>
